!!!OTL: Nach den Flitterwochen oder das boese Weib.
!!!ARE: Europa, Mitteleuropa, Deutschland
!!!SCT: A0248
!!!TXL: @@GMH
!!!YEM: Copyright 1995, estate of Helmut Schaffrath.
**kern	**text
!! Mixed meters:  4/2; 6/2
*M6/2	*
*met(c|)	*
*clefC3	*
*k[b-]	*
*F:	*
=1	=1
1ryy	.
2ryy	.
{2F	Wie
2F	kumbts,
2F	das
=2	=2
1A	ich
2B-	ſo
2.c/	trau-
4B-	.
4A	.
4G	-rig
=3	=3
1F	bin?
1r	.
2r}	.
{2c	mein
=4	=4
*M4/2	*
2c	frewd
2d	vnd
2c	mut
2c	fert
=5	=5
*lig	*
4B-	gar
4A	.
4G	.
4F	.
2G	.
*Xlig	*
2G	da-
=6	=6
1F	-hin
2r}	.
{2f	ʒu
=7	=7
*M6/2	*
*lig	*
2e	traw-
2f	.
*Xlig	*
2d	-ren
*lig	*
2.g	iſts
4f	.
*Xlig	*
2e	ge-
=8	=8
1d	-kom-
1c	-men,
2r}	.
{2c	und
=9	=9
*M4/2	*
2c	wer
2d	ich
2c	ferd
2c	ſo
=10	=10
*lig	*
4B-	wi-
4A	.
4G	.
4F	.
*Xlig	*
2G	-tʒig
2G	als
=11	=11
1F	hewr
2r}	.
{2c	kein
=12	=12
2B-	weib
2B-	het
2A	ich
2d	ge-
=13	=13
*M6/2	*
2c	-nom-
2A	-men,
2B-	ge-
*lig	*
1c	-nom-
4B-	.
4A	.
=14	=14
1G	.
*Xlig	*
0F/ll}	-men.
==	==
!!!GTL: Liebeslieder
!!!AGN: Romanze, Ballade, Lied
!! Forster II 1540 No. 69.
!!!ONB: ESAC (Essen Associative Code) Database: ALTDEU
!!!AMT: irregular
!!!AIN: vox
!!!EED: Helmut Schaffrath
!!!EEV: 1.0
!!!RDF**kern: l = terminal long
!!!URL-scan: https://rosdok.uni-rostock.de/mcrviewer/recordIdentifier/rosdok_ppn738218359/iview2/phys_0396.iview2?x=-495.6391625615763&y=1992.4748768433928&scale=0.4629418472063854&rotation=0&layout=singlePageLayout&logicalDiv=log_0010
!!!ENC: Anna Maria Matuszewska
!!!EEV: 2024/11/03
*-	*-
